X:0
O:USA
Q:1/4=121
T:Limbo Rock (Second line limbo)
M:4/4
L:1/8
R:Moderate Latin Rock
F:https://www.youtube.com/watch?v=pq71AoUcOSE
K:Dmin
z F F2 A2 | "F" c2 c(c c)A (c2 | c2) z F F2 A2 | "C7" G2 G(c c)c "F" (A2 |
A2) z F F2 A2 | c2 c(c c)A (c2 | c2) z F F2 A2 | "C7" G2 G(c c)c "F"(A2 |
A2) z d d2 B2 | "Bb" d2 d(d d)B (d2 | d2) z c c2 c2 | "F" f2 f(c c)A "C7" (G2 |
G2) z F F2 A2 | G2 G(c c)c (C2 | C2) z A A2 G2 | "F" F2 F("Bb"D D)D "F" (F2 | F2) z4 z2 |
